X:1
T:Title
%%score [ 1 2 3 4 ]
L:1/8
M:2/2
K:F
V:1 treble nm="S."
V:2 treble nm="A."
V:3 treble-8 nm="T."
V:4 bass nm="B."
V:1
 z2 G2 d2 d2 |"^Adieu, sweet Amaryllis" d4 A4 | B2 G2 ^F2 F2 | %3
w: A- dieu, A-|dieu, A-|dieu, sweet A- ma-|
 G2"^John Wilbye""^(1574-1638)" G2 z2 A2 |[M:2/2] c2 =B2 A2 A2 | G4 ^F4 | z2 G2 d4 | z2 B2 d4 | %8
w: ryl- lis, A-|dieu, sweet A- ma-|ryl- lis,|A- dieu,|A- dieu,|
 z2 G2 d3 e | f2 d2 c4 | d4 z4 | A4 B4- | B4 G4 | c8 | A4 d4- | d2 c2 B4- | B4 A4 :| z4 G4- | %18
w: A- dieu, sweet|A- ma- ryl-|lis,|For since|* to|part,|to part|* your will|* is,|O|
 G4 A4- | A2 G2 G4- | G4 ^F4 | G4 z4 | z2 d2 d2 d2 | c2 B4 A2 | B6 d2 | d3 c B2 d2 | f3 e d2 d2 | %27
w: * hea|* vy tid||ing,|Here is for|me no bid-|ing. Yet|once a- gain, yet|once a- gain, a-|
 c2 B2 A2 G2 | ^F2 G4 F2 | G4 z2 d2 | d3 c B2 d2 | f3 e d2 d2 | c2 B2 A2 G2 | ^F2 G4 F2 | G8 | %35
w: gain, ere that I|part with *|you, yet|once a- gain, yet|once a- gain, a-|gain, ere that I|part with *|you,|
 A3 =B A2 G2 | ^F3 G A=B c2 | =B4 A4 | G2 d2 d4 | z2 =B2 d4 | z2 G2 d2 =B2 | A3 =B A2 G2 | %42
w: A- ma- ryl- lis,|A- ma- ryl * lis,|sweet, A-|dieu, A- dieu,|A- dieu,|A- dieu, sweet|A- ma- ryl- lis,|
 ^F3 G A=B c2 | =B4 A4 | G8 |] %45
w: A- ma- ryl * lis,|sweet, A-|dieu.|
V:2
 z8 | z2 G2 d2 d2 | d4 z2 A2 | B2 G2 ^F2 F2 |[M:2/2] G4 D2 D2 | D6 A2 | B4 z2 A2 | G4 z2 ^F2 | %8
w: |A- dieu, A-|dieu, A-|dieu, sweet A- ma-|ryl- lis, A-|dieu, A-|dieu, A-|dieu, A-|
 G2 B2 B2 B2 | A2 F2 F4 | F8 | F8 | G8 | G4 A4 | z2 c2 B4- | B2 A2 G4- | G4 ^F4 :| G8 | E4 E4 | %19
w: dieu, A- dieu, sweet|A- ma- ryl-|lis,|For|since|to part,|to part|* your will|* is,|O|hea- vy|
 D8 | D8 | z2 G2 G2 G2 | D2 B2 B2 A2 | G2 G2 F4 | F4 z2 F2 | F2 F2 G2 B2 | A4 D4 | _E6 E2 | D4 D4 | %29
w: tid-|ing,|Here is for|me, here is for|me no bid-|ing. Yet|once a- gain, a-|gain, ere|that I|part with|
 D8 | z2 F2 G2 B2 | A2 A2 D2 G2 | _E6 E2 | D4 D4 | D8 | D3 D D2 =B,2 | D3 D D2 E2 | D4 D4 | %38
w: you,|yet once a-|gain, a- gain, ere|that I|part with|you,|A- ma- ryl- lis,|A- ma- ryl- lis,|sweet, A-|
 D4 z2 ^F2 | G4 z2 A2 | G2 G2 ^F2 D2 | D3 D D2 =B,2 | D3 D D2 E2 | D4 D4 | D8 |] %45
w: dieu, A-|dieu, A-|dieu, A- dieu, sweet,|A- ma- ryl- lis,|A- ma- ryl- lis,|sweet, A-|dieu.|
V:3
 g4 ^f2 d2 | B3 c d4 | G4 z2 d2 | B3 c d2 d2 |[M:2/2][K:treble-8] G2 G2 z2 A2 | B2 G2 d2 d2 | %6
w: A- dieu, sweet|A- ma- ryl-|lis, A-|dieu, sweet A- ma-|ryl- lis, A-|dieu, sweet A- ma-|
 d2 d2 z2 d2 | d4 z2 d2 | B3 c d2 B2 | (c2 B4 A2) | B4 d4- | d4 d4- | d4 (c2 B2) | _e4 c4 | f8 | %15
w: ryl- lis A-|dieu, A-|dieu, sweet A- ma-|ryl * *|lis, For|* since|* to *|part your|will|
 d8- | d8 :| d8 | c8- | c4 B4 | A8 | =B8 | z2 d2 f2 f2 | _e2 d2 c4 | B2 f2 f3 _e | d4 z2 d2 | %26
w: is,||O|hea|* vy|tid-|ing,|Here is for|me no bid-|ing. Yet once a-|gain, yet|
 d3 c B2 B2 | A2 G2 c4- | c2 B2 A2 A2 | G2 g2 g3 g | d4 z2 d2 | d3 c B2 B2 | A2 G2 c4- | %33
w: once a- gain, a-|gain, ere that|* I part with|you, yet once a-|gain, yet|once a- gain, a-|gain, ere that|
 c2 B2 A2 A2 | =B8 | A3 G ^F2 G2 | A3 A A2 A2 | D2 G2 G2 ^F2 | G4 z2 A2 | =B4 z2 d2 | d2 G2 A2 G2 | %41
w: * I part with|you,|A- ma- ryl- lis,|A- ma- ryl- lis,|sweet, A- dieu, A-|dieu, A-|dieu, A-|dieu, A- dieu, sweet,|
 ^F3 G F2 G2 | A2 A2 A2 A2 | D2 G2 G2 ^F2 | G8 |] %45
w: A- ma- ryl- lis,|A- ma- ryl- lis,|sweet, A- dieu, A-|dieu.|
V:4
 z8 | G,4 ^F,2 D,2 | B,,3 C, D,4 | G,,4 z2 D,2 |[M:2/2] E,2 G,2 ^F,2 F,2 | G,4 D,2 D,2 | %6
w: |A- dieu, sweet|A- ma- ryl-|lis, A-|dieu, sweet A- ma-|ryl- lis, A-|
 G,4 z2 ^F,2 | G,4 z2 D,2 | G,3 A, B,2 G,2 | F,8 | B,,8 | D,8 | _E,8 | C,4 F,4- | F,4 D,4 | G,8 | %16
w: dieu, A-|dieu, A-|dieu, sweet A- ma-|ryl-|lis,|For|since|to part|* your|will|
 D,8 :| =B,,8 |"^This edition""^?""^Andrew Sims 2014" C,4 C,4 | D,8- | D,8 | G,,4 z2 G,2 | %22
w: is,|O|hea- vy|tid||ing, Here|
 G,2 G,2 D,4 | _E,4 F,4 | B,,6 B,2 | B,3 A, G,2 G,2 | D,4 G,4 | C,4 C,4 | D,4 D,4 | G,,6 G,2 | %30
w: is for me|no bid-|ing, Yet|once a- gain, a-|gain, ere|that I|part with|you, yet|
 B,3 A, G,2 G,2 | D,4 G,4 | C,4 C,4 | D,4 D,4 | G,8 | ^F,3 G, D,2 E,2 | D,3 D, D,2 A,,2 | %37
w: once a- gain, a-|gain, ere|that I|part with|you,|A- ma- ryl- lis,|A- ma- ryl- lis,|
 =B,,3 C, D,2 D,2 | G,,4 z2 D,2 | G,4 z2 ^F,2 | G,2 E,2 D,2 G,2 | D,3 G,, D,2 E,2 | %42
w: sweet, A- dieu, A-|dieu, A-|dieu, A-|dieu, A- dieu, sweet,|A- ma- ryl- lis,|
 D,3 D, D,2 A,,2 | =B,,3 C, D,2 D,2 | G,,8 |] %45
w: A- ma- ryl- lis,|sweet, A- dieu, A-|dieu.|

